X:1
T:Mozart Arioso
T:Arioso
T:Pianolessen.eu
T:Mozart
T:Pianolessen.eu
T:Pianolessen.eu
Z:Pianolessen.eu
%%score { 1 | 2 }
L:1/8
Q:1/4=71
M:3/4
K:G
V:1 treble nm="Piano" snm="Pno."
V:2 bass 
V:1
!p!"^Adagio" !5!d!3!B !2!A!1!G !2!F!3!G | !2!G2 A4 | !5!c!4!A !3!G!2!F !1!E!2!F | G4 z2 | %4
 !5!b2 g2 !1!e2 | !2!^c2 !3!d2 z !1!A | Be d2 ^c2 | d2 z4 |!p! !5!d!3!B !2!A!1!G !2!F!3!G | %9
 !2!G2 A4 | !5!c!4!A !3!G!2!F !1!E!2!F | G4 z2 | !5!b2 g2 !1!e2 | !2!^c2 !3!d2 z !1!A | Be d2 ^c2 | %15
 d2 z4 | !5!d!3!B AG !2!F!1!G | e6 | !5!e!3!^c BA !2!^G!1!A | !5!f4 z2 | !5!e2 !3!c2 !1!A2 | %21
 !2!F2 !3!G2 z !1!D | EA G2 F2 | G4 z2 | !5!d!3!B AG !2!F!1!G | e6 | !5!e!3!^c BA !2!^G!1!A | %27
 !5!f4 z2 | !5!e2 !3!c2 !1!A2 | !2!F2 !3!G2 z !1!D | EA G2 F2 | G4 z2 |] %32
V:2
 !5!G,2 B,2 D2 | C2 C2 C2 | D2 D2 D2 | G,2 B,2 D2 | !5!G,2 !3!B,2 !1!E2 | !4!A,2 F,2 z2 | %6
 !2!G,2 A,2 A,2 | !3!F,2 !5!D,2 z2 | !5!G,2 B,2 D2 | C2 C2 C2 | D2 D2 D2 | G,2 B,2 D2 | %12
 !5!G,2 !3!B,2 !1!E2 | !4!A,2 F,2 z2 | !2!G,2 A,2 A,2 | !3!F,2 !5!D,2 z2 | !2!B,2 B,2 B,2 | %17
 C2 B,2 C2 | !2!^C2 C2 C2 | !1!D2 ^C2 D2 | C2 C2 C2 | C2 B,2 z2 | !2!C2 [B,D]2 [A,C]2 | %23
 [G,B,]4 z2 | !2!B,2 B,2 B,2 | C2 B,2 C2 | !2!^C2 C2 C2 | !1!D2 ^C2 D2 | C2 C2 C2 | C2 B,2 z2 | %30
 !2!C2 [B,D]2 [A,C]2 | [G,B,]4 z2 |] %32

